X: 21392
M: C|
L: 1/8
K: D
dcBA d3f | e2 E4 Bc | dAcA d3A | F2D2 D2a2 |\
fa{c'}ba ~f>gaf | {a}g>f {f}e>d {f}e2de | f2ed BdAd | F2D2 D2 :|
|: Bc |\
dcBA BcdB | edcB cdec | {e}dcde defg | abag fgaf |\
gabg fgaf | {a}gfed e2de | {de}f2ed B<d A<d | F2D2 D2 :|


